other/onetracker.svg

<?xml version="1.0" encoding="UTF-8"?><svg id="b" xmlns="http://www.w3.org/2000/svg" viewBox="0 0 48 48"><defs><style>.c{fill:none;stroke:#fff;stroke-linecap:round;stroke-linejoin:round;}</style></defs><circle class="c" cx="17.06" cy="33.9145" r="3.01"/><circle class="c" cx="37.171" cy="33.9145" r="3.01"/><path class="c" d="m41.814,32.3175h1.686v-12.588l-5.676-4.72h-7.754m2.528,17.308h-10.452m-10.172,0h-2.697v-3.372m0-11.801v-6.069h20.792v21.242"/><path class="c" d="m33.272,18.6615v6.744h6.744v-4.665l-2.529-2.08-4.215.001Zm-25.4.675h10.733m-12.138,3.764h10.059m-12.026,3.822h10.733"/></svg>

<svg xmlns="http://www.w3.org/2000/svg" viewBox="0 0 48 48"><circle cx="17.06" cy="33.914" r="3.01" style="fill:none;fill-opacity:1;stroke:#fff;stroke-width:1;stroke-linecap:round;stroke-linejoin:round;stroke-miterlimit:4.24;stroke-dasharray:none;paint-order:stroke fill markers"/><circle cx="37.171" cy="33.914" r="3.01" style="fill:none;fill-opacity:1;stroke:#fff;stroke-width:1;stroke-linecap:round;stroke-linejoin:round;stroke-miterlimit:4.24;stroke-dasharray:none;paint-order:stroke fill markers"/><path d="M41.814 32.317H43.5V19.729l-5.676-4.72H30.07M32.598 32.317H22.146M11.974 32.317H9.277v-3.372M9.277 17.144v-6.069h20.792v21.242" style="fill:none;stroke:#fff;stroke-width:1;stroke-linecap:round;stroke-linejoin:round;stroke-miterlimit:4.24;stroke-dasharray:none;stroke-opacity:1"/><path d="M33.272 18.661v6.744h6.744V20.74l-2.529-2.08zM7.872 19.336h10.733M6.467 23.1h10.059M4.5 26.922h10.733" style="fill:none;stroke:#fff;stroke-width:1;stroke-linecap:round;stroke-linejoin:round;stroke-miterlimit:4.24;stroke-dasharray:none;stroke-opacity:1"/></svg>
